X:1

T:Devil’s Dream [2]

M:C
L:1/8

R:Hornpipe

S:Kerr – Merry Melodies, vol. 4, No. 270  (c. 1880’s)

Z:AK/Fiddler’s Companion

K:A

(ed)|c2 Ac (BA)GB|Aaga fecA|1 GEEG Bcde|fcdB AGFE:|2

GABc defg|a2a2a2||:(cd)|eaga eaga|eaga fecA|1 GEEG Bcde|

fdcd B2:|2 GABc defg|a2a2a2||

 

DEVIL’S DREAM [3]. Old-Time, Breakdown. A version of “John Brown’s Dream” or “Brown’s Dream” recorded by Hobart Smith. Rounder CD 0032, Hobart Smith.

                       

DEVIL'S DREAM (Old). English, Jig. G Dorian. AABB. Standard tuning. Published before 1730. Raven (English Country Dance Tunes), 1984; pg. 7.

                       

DEVIL’S GALLOP ROUND THE HOB, THE. Irish. The name of this tune is mentioned in an account by Crofton Croker of the playing of the blind uillean piper James Gandsey of County Kerry (1769-1857). A hob is a raised stone in a fireplace on which cookfires were built.

                       

DEVIL'S HICCOUGH. Old‑Time, Fiddle Tune. USA, northwest Alabama. The title is listed in a 1925 master's thesis by S.M. Taylor called "A Preliminary Survey of Folk‑Lore in Alabama."

                       

DEVIL'S HORNPIPE. Old-Time, Hornpipe. A Major. Standard tuning. AABB'. The melody is similar to "Speed the Plow [1]" and "Blanchard's Hornpipe [1]." It was in the repertoire of Missouri fiddler Roy Wooliver. The title appears in a list of tunes compiled by W.E.G. of Verbena (Chilton County), Alabama, in the Union Banner, September 29th, 1922. Source for notated version: John Hartford [Phillips]. Phillips (Traditional American Fiddle Tunes), vol. 2, 1995; pg. 189. Rounder 0442, John Hartford – “Hamilton Ironworks” (2001). Rounder CD-0388, Gene Goforth – “Emminence Breakdown” (1997).

                       

DEVILS IN DUBLIN. AKA- "The Devils o'/of Dublin." AKA and see “Merry Blacksmith,” “Mist on the Loch,” “Paddy on the Railroad.” Irish, Reel. D Major. Standard tuning. AABB. A variant of the well-known “Merry Blacksmith.” The second tune in Michael Coleman’s 1921 pair of tunes recorded under the single title “Boys of the Lough.” Irish flute player Séamus Tansey has also recorded the tune under the “Devils” title. In Cape Breton the tune is known as “Mist on the Loch.” See also the like-named jigs "Devil in Dublin." Sources for notated versions: fiddler Peter Horan (b. 1926, Kilavil, Co. Sligo) [Flaherty]; fiddler Michael Coleman (Co. Sligo/New York) [Miller & Perron]. Flaherty (Trip to Sligo), 1990; pg. 67. Lyth (Bowing Styles in Irish Fiddle Playing), vol. 1, 1981; 43, 44. Miller & Perron (Irish Traditional Fiddle Music), 1977; vol. 3, No. 9. Miller & Perron (Irish Traditional Fiddle Music), 2nd Edition, 2006; pg. 61. Coleman Center CD CC004, Peter Horan – “The Mountain Road” (1999. Various artists. “A Compilation of tunes popular in South Sligo” (Appears as “The Devils of Dublin”). Coleman Music Center CHC 009, fiddler Pake Spellman (d. 1969, from Doocastle area) – “The Coleman Archive, vol. 2: The Home Place” (2005. Various artists). Green Linnet GLCD 1200, Lunasa – “Otherworld” (1999. Appears as “Devils of Dublin”). IRC Records, Michael Coleman - “The Musical Glory of Old Sligo” (1967).

See also listing at: 

Alan Ng’s Irishtune.info

